pro/src/icons/full-profil.svg

<svg width="48" height="48" viewBox="0 0 48 48" fill="none" xmlns="http://www.w3.org/2000/svg">
<g id="icon" fill="currentColor">
<path d="M18.189 7.19358C19.4484 5.2619 21.5792 4 23.9976 4C27.8651 4 30.9976 7.23491 30.9976 11.2381V15.7619C30.9976 19.7651 27.8651 23 23.9976 23C20.1301 23 16.9976 19.7651 16.9976 15.7619V11.2381C16.9976 9.7411 17.4373 8.34384 18.189 7.19358Z"/>
<path d="M9.02993 36.6596C10.7733 30.0346 16.7972 25.1364 23.9954 25.1364C31.193 25.1364 37.2265 30.034 38.9701 36.6596C39.0489 36.9591 38.9698 37.278 38.7602 37.506C37.711 38.6473 36.5268 39.6761 35.2259 40.5535C35.2259 40.5535 29.9069 44 24.0046 44C18.1485 44 12.9046 41.4838 9.24048 37.5067C9.03041 37.2787 8.95105 36.9594 9.02993 36.6596Z"/>
</g>
</svg>

<svg xmlns="http://www.w3.org/2000/svg" width="48" height="48" fill="none"><g id="icon" fill="currentColor"><path d="M18.189 7.194C19.449 5.262 21.579 4 23.998 4c3.867 0 7 3.235 7 7.238v4.524c0 4.003-3.133 7.238-7 7.238s-7-3.235-7-7.238v-4.524c0-1.497.44-2.894 1.191-4.044M9.03 36.66c1.743-6.625 7.767-11.524 14.965-11.524S37.227 30.034 38.97 36.66c.079.3 0 .618-.21.846a20 20 0 0 1-3.534 3.047S29.906 44 24.005 44c-5.857 0-11.1-2.516-14.765-6.493a.91.91 0 0 1-.21-.847"/></g></svg>
